assets/features/cloud-governance.svg

<?xml version="1.0" encoding="UTF-8"?>
<svg width="16px" height="16px" viewBox="0 0 16 16" version="1.1" xmlns="http://www.w3.org/2000/svg" xmlns:xlink="http://www.w3.org/1999/xlink">
    <!-- Generator: Sketch 49.3 (51167) - http://www.bohemiancoding.com/sketch -->
    <title>Cloud Governance</title>
    <desc>Created with Sketch.</desc>
    <defs></defs>
    <g id="cloudGov-16px" stroke="none" stroke-width="1" fill="none" fill-rule="evenodd">
        <path d="M4.09761127,7.15707218 L14.3802019,7.15707218 L9.23890659,4.29255766 L4.09761127,7.15707218 Z M5.125,8.67793489 L5.125,8.59292324 C5.125,8.5715789 5.12785319,8.55090096 5.13319897,8.53125 L4.546875,8.53125 C4.41743326,8.53125 4.3125,8.42631674 4.3125,8.296875 C4.3125,8.16743326 4.41743326,8.0625 4.546875,8.0625 L13.9531769,8.0625 C14.0826186,8.0625 14.1875519,8.16743326 14.1875519,8.296875 C14.1875519,8.42631674 14.0826186,8.53125 13.9531769,8.53125 L13.366801,8.53125 C13.3721468,8.55090096 13.375,8.5715789 13.375,8.59292324 L13.375,13.53125 L13.9531769,13.53125 C14.0826186,13.53125 14.1875519,13.6361833 14.1875519,13.765625 C14.1875519,13.8950667 14.0826186,14 13.9531769,14 L4.546875,14 C4.41743326,14 4.3125,13.8950667 4.3125,13.765625 C4.3125,13.6361833 4.41743326,13.53125 4.546875,13.53125 L5.125,13.53125 L5.125,9.14668593 C4.70073428,9.14566908 4.59835251,9.14542324 3.75807143,9.14340558 C3.72063303,9.14341208 3.72063303,9.14341208 3.71769899,9.1434131 C2.23268627,9.1434131 1.046875,7.9834622 1.046875,6.5040079 C1.046875,5.31279598 1.8184016,4.2776727 2.91878525,3.93039889 C3.0219513,3.09042757 3.73190071,2.4415079 4.59087724,2.4415079 C4.87656052,2.4415079 5.15165816,2.51360969 5.39532106,2.64742541 C5.94220316,1.67181416 6.97064656,1.046875 8.11175729,1.046875 C9.73526891,1.046875 11.0702048,2.30074268 11.2193922,3.90444525 C11.3002287,3.89687644 11.3817047,3.89306459 11.4636351,3.89306459 C12.8812758,3.89306459 14.0345319,5.03176471 14.0769179,6.45149905 L14.8710602,6.89396191 C15.0595192,6.99896339 15.1271749,7.23686015 15.0221735,7.42531919 C14.9532107,7.54909511 14.8226292,7.62582218 14.6809382,7.62582218 L3.796875,7.62582218 C3.58113877,7.62582218 3.40625,7.45093341 3.40625,7.23519718 C3.40625,7.09350618 3.48297707,6.96292467 3.60675299,6.89396191 L9.04878458,3.86188973 C9.16697898,3.79603676 9.31083421,3.79603676 9.4290286,3.86188973 L13.5804006,6.1748604 C13.4118136,5.14582444 12.5278382,4.36181459 11.4636351,4.36181459 C11.3216588,4.36181459 11.1815847,4.37573066 11.0447069,4.40311764 L10.7672301,4.4586361 L10.7643608,4.17567427 C10.7494199,2.70228661 9.56581129,1.515625 8.11175729,1.515625 C7.06463627,1.515625 6.12841295,2.13610646 5.69916397,3.084506 L5.57533547,3.35809756 L5.3400224,3.17151354 C5.12759198,3.00307359 4.86650124,2.9102579 4.59087724,2.9102579 C3.92906196,2.9102579 3.38827284,3.44643218 3.37490354,4.11620867 L3.37131014,4.2962309 L3.19644213,4.33915054 C2.21764902,4.57938569 1.515625,5.47009364 1.515625,6.5040079 C1.515625,7.7222372 2.48928464,8.6746631 3.71769899,8.6746631 C3.74598251,8.67459849 3.75282563,8.67459849 3.76051142,8.67466378 L5.125,8.67793489 Z M12.90625,13.53125 L12.90625,8.59292324 C12.90625,8.5715789 12.9091032,8.55090096 12.914449,8.53125 L10.773051,8.53125 C10.7783968,8.55090096 10.78125,8.5715789 10.78125,8.59292324 L10.78125,13.53125 L12.90625,13.53125 Z M5.59375,13.53125 L7.71875,13.53125 L7.71875,8.59292324 C7.71875,8.5715789 7.72160319,8.55090096 7.72694897,8.53125 L5.58555103,8.53125 C5.59089681,8.55090096 5.59375,8.5715789 5.59375,8.59292324 L5.59375,13.53125 Z M8.1875,13.53125 L10.3125,13.53125 L10.3125,8.59292324 C10.3125,8.5715789 10.3153532,8.55090096 10.320699,8.53125 L8.17930103,8.53125 C8.18464681,8.55090096 8.1875,8.5715789 8.1875,8.59292324 L8.1875,13.53125 Z M3.8125,14.90625 C3.68305826,14.90625 3.578125,14.8013167 3.578125,14.671875 C3.578125,14.5424333 3.68305826,14.4375 3.8125,14.4375 L14.71875,14.4375 C14.8481917,14.4375 14.953125,14.5424333 14.953125,14.671875 C14.953125,14.8013167 14.8481917,14.90625 14.71875,14.90625 L3.8125,14.90625 Z" id="Combined-Shape" fill="#689BFF" fill-rule="nonzero"></path>
    </g>
</svg>

<?xml version="1.0" encoding="UTF-8" standalone="no"?>
<svg
   xmlns:dc="http://purl.org/dc/elements/1.1/"
   xmlns:cc="http://creativecommons.org/ns#"
   xmlns:rdf="http://www.w3.org/1999/02/22-rdf-syntax-ns#"
   xmlns:svg="http://www.w3.org/2000/svg"
   xmlns="http://www.w3.org/2000/svg"
   xmlns:sodipodi="http://sodipodi.sourceforge.net/DTD/sodipodi-0.dtd"
   xmlns:inkscape="http://www.inkscape.org/namespaces/inkscape"
   width="16px"
   height="16px"
   viewBox="0 0 16 16"
   version="1.1"
   id="svg10"
   sodipodi:docname="cloud-governance.svg"
   inkscape:version="0.92.3 (2405546, 2018-03-11)">
  <metadata
     id="metadata14">
    <rdf:RDF>
      <cc:Work
         rdf:about="">
        <dc:format>image/svg+xml</dc:format>
        <dc:type
           rdf:resource="http://purl.org/dc/dcmitype/StillImage" />
      </cc:Work>
    </rdf:RDF>
  </metadata>
  <sodipodi:namedview
     pagecolor="#ffffff"
     bordercolor="#666666"
     borderopacity="1"
     objecttolerance="10"
     gridtolerance="10"
     guidetolerance="10"
     inkscape:pageopacity="0"
     inkscape:pageshadow="2"
     inkscape:window-width="2560"
     inkscape:window-height="1346"
     id="namedview12"
     showgrid="false"
     inkscape:zoom="14.75"
     inkscape:cx="8"
     inkscape:cy="8"
     inkscape:window-x="2549"
     inkscape:window-y="-11"
     inkscape:window-maximized="1"
     inkscape:current-layer="svg10" />
  <!-- Generator: Sketch 49.3 (51167) - http://www.bohemiancoding.com/sketch -->
  <title
     id="title2">Cloud Governance</title>
  <desc
     id="desc4">Created with Sketch.</desc>
  <defs
     id="defs6" />
  <g
     id="cloudGov-16px"
     transform="matrix(1.1408396,0,0,1,-1.1943168,0.0234375)"
     style="fill:none;fill-rule:evenodd;stroke:none;stroke-width:1">
    <path
       d="M 4.0976113,7.1570722 H 14.380202 L 9.2389066,4.2925577 Z M 5.125,8.6779349 v -0.085012 c 0,-0.021344 0.00285,-0.042022 0.0082,-0.061673 H 4.546875 C 4.4174333,8.53125 4.3125,8.4263167 4.3125,8.296875 4.3125,8.1674333 4.4174333,8.0625 4.546875,8.0625 h 9.406302 c 0.129442,0 0.234375,0.1049333 0.234375,0.234375 0,0.1294417 -0.104933,0.234375 -0.234375,0.234375 h -0.586376 c 0.0053,0.019651 0.0082,0.040329 0.0082,0.061673 v 4.938327 h 0.578177 c 0.129442,0 0.234375,0.104933 0.234375,0.234375 C 14.187552,13.895067 14.082619,14 13.953177,14 H 4.546875 C 4.4174333,14 4.3125,13.895067 4.3125,13.765625 c 0,-0.129442 0.1049333,-0.234375 0.234375,-0.234375 H 5.125 V 9.1466859 c -0.4242657,-0.00102 -0.5266475,-0.00126 -1.3669286,-0.00328 -0.037438,6.5e-6 -0.037438,6.5e-6 -0.040372,7.5e-6 -1.4850127,0 -2.670824,-1.1599509 -2.670824,-2.6394052 0,-1.1912119 0.7715266,-2.2263352 1.8719103,-2.573609 0.103166,-0.8399713 0.8131154,-1.488891 1.6720919,-1.488891 0.2856833,0 0.560781,0.072102 0.8044439,0.2059175 C 5.9422032,1.6718142 6.9706466,1.046875 8.1117573,1.046875 c 1.6235116,0 2.9584477,1.2538677 3.1076347,2.8575703 0.08084,-0.00757 0.162313,-0.011381 0.244243,-0.011381 1.417641,0 2.570897,1.1387001 2.613283,2.5584344 l 0.794142,0.4424629 c 0.188459,0.1050015 0.256115,0.3428982 0.151113,0.5313573 -0.06896,0.1237759 -0.199544,0.200503 -0.341235,0.200503 H 3.796875 c -0.2157362,0 -0.390625,-0.1748888 -0.390625,-0.390625 0,-0.141691 0.076727,-0.2722725 0.200503,-0.3412353 L 9.0487846,3.8618897 c 0.1181944,-0.065853 0.2620496,-0.065853 0.380244,0 l 4.1513724,2.3129707 c -0.168587,-1.029036 -1.052563,-1.8130458 -2.116766,-1.8130458 -0.141976,0 -0.28205,0.013916 -0.418928,0.041303 L 10.76723,4.4586356 10.76433,4.1756738 C 10.74942,2.7022866 9.5658113,1.515625 8.1117573,1.515625 c -1.047121,0 -1.9833443,0.6204815 -2.4125933,1.568881 L 5.5753355,3.3580976 5.3400224,3.1715135 C 5.127592,3.0030736 4.8665012,2.9102579 4.5908772,2.9102579 c -0.6618152,0 -1.2026044,0.5361743 -1.2159737,1.2059508 l -0.00359,0.1800222 -0.174868,0.04292 C 2.217649,4.5793857 1.515625,5.4700936 1.515625,6.5040079 c 0,1.2182293 0.9736596,2.1706552 2.202074,2.1706552 0.028284,-6.46e-5 0.035127,-6.46e-5 0.042812,7e-7 z M 12.90625,13.53125 V 8.5929232 c 0,-0.021344 0.0029,-0.042022 0.0082,-0.061673 h -2.141398 c 0.0053,0.019651 0.0082,0.040329 0.0082,0.061673 V 13.53125 Z m -7.3125,0 h 2.125 V 8.5929232 c 0,-0.021344 0.00285,-0.042022 0.0082,-0.061673 H 5.585551 c 0.00535,0.019651 0.0082,0.040329 0.0082,0.061673 z m 2.59375,0 h 2.125 V 8.5929232 c 0,-0.021344 0.0029,-0.042022 0.0082,-0.061673 H 8.179301 c 0.00535,0.019651 0.0082,0.040329 0.0082,0.061673 z m -4.375,1.375 c -0.1294417,0 -0.234375,-0.104933 -0.234375,-0.234375 0,-0.129442 0.1049333,-0.234375 0.234375,-0.234375 h 10.90625 c 0.129442,0 0.234375,0.104933 0.234375,0.234375 0,0.129442 -0.104933,0.234375 -0.234375,0.234375 z"
       id="Combined-Shape"
       inkscape:connector-curvature="0"
       style="fill:#689bff;fill-rule:nonzero" />
  </g>
</svg>
